; HEADER_BLOCK_START
; generated by OrcaSlicer 2.2.0 on 2025-04-17 at 18:38:48
; total layer number: 125
; filament_density: 1.24
; filament_diameter: 1.75
; max_z_height: 25.00
; HEADER_BLOCK_END

; THUMBNAIL_BLOCK_START

;
; THUMBNAIL_BLOCK_END

; THUMBNAIL_BLOCK_START

;
; THUMBNAIL_BLOCK_END

; external perimeters extrusion width = 0.42mm
; perimeters extrusion width = 0.45mm
; infill extrusion width = 0.45mm
; solid infill extrusion width = 0.45mm
; top infill extrusion width = 0.42mm
; first layer extrusion width = 0.50mm

; EXECUTABLE_BLOCK_START
EXCLUDE_OBJECT_DEFINE NAME=Chassis.stl_id_0_copy_0 CENTER=110,110 POLYGON=[[20,47.5],[200,47.5],[200,172.5],[20,172.5],[20,47.5]]
M73 P0 R84
;TYPE:Custom
SET_GCODE_VARIABLE MACRO=PRINTER_PARAM VARIABLE=fan0_min VALUE=30 ;compensate for fan speed
SET_VELOCITY_LIMIT ACCEL_TO_DECEL=2500 ;revert accel_to_decel back to 2500
M220 S100 ;Reset Feedrate
M221 S100 ;Reset Flowrate

M140 S55 ;Set bed temp
G28 X Y ;Home XY axes
M190 S55 ;Wait for bed temp to stabilize
G28 Z ;Home Z axis & load bed mesh
BED_MESH_CALIBRATE PROBE_COUNT=5,5 ;Auto bed level

M104 S220 ;Set nozzle temp
G92 E0 ;Reset Extruder
G1 X-2.0 Y20 Z0.3 F5000.0 ;Move to start position
M109 S220 ;Wait for nozzle temp to stabilize
G1 Z0.2 ;Lower nozzle to printing height
G1 Y145.0 F1500.0 E15 ;Draw the first line
G1 X-1.7 F5000.0 ;Move to side a little
G1 Y30 F1500.0 E15 ;Draw the second line
G92 E0 ;Reset Extruder
G90
G21
M83 ; use relative distances for extrusion
; filament start gcode
M106 S0
;LAYER_CHANGE
;Z:0.2
;HEIGHT:0.2
;BEFORE_LAYER_CHANGE
;0.2
G92 E0

G1 E-.5 F1800
;_SET_FAN_SPEED_CHANGING_LAYER
SET_VELOCITY_LIMIT ACCEL=1000
SET_VELOCITY_LIMIT SQUARE_CORNER_VELOCITY=7
; printing object Chassis.stl id:0 copy 0
EXCLUDE_OBJECT_START NAME=Chassis.stl_id_0_copy_0
G1 Z.4 F24000
G1 X192.24 Y49.654
G1 Z.4
G1 Z.2
G1 E.5 F1800
;TYPE:Inner wall
;WIDTH:0.499999
G1 F3000
G1 X192.255 Y49.571 E.00314
G1 X192.255 Y48.257 E.04896
G1 X199.243 Y48.257 E.26028
G1 X199.243 Y171.743 E4.59937
G1 X192.255 Y171.743 E.26028
G1 X192.255 Y170.429 E.04896
G1 X192.211 Y170.187 E.00916
G1 X192.136 Y170.043 E.00605
G1 X191.888 Y169.821 E.01238
G1 X191.569 Y169.743 E.01222
G1 X168.431 Y169.743 E.86182
G1 X168.167 Y169.795 E.01
G1 X167.915 Y169.977 E.0116
G1 X167.782 Y170.206 E.00983
G1 X167.745 Y170.429 E.00841
G1 X167.745 Y171.743 E.04896
G1 X52.255 Y171.743 E4.30157
G1 X52.255 Y170.429 E.04896
G1 X52.218 Y170.206 E.00841
G1 X52.085 Y169.977 E.00983
G1 X51.878 Y169.816 E.00979
G1 X51.569 Y169.743 E.01181
G1 X28.431 Y169.743 E.86182
G1 X28.199 Y169.783 E.00876
G1 X27.94 Y169.95 E.01147
G1 X27.789 Y170.187 E.01046
G1 X27.745 Y170.429 E.00916
G1 X27.745 Y171.743 E.04896
G1 X20.757 Y171.743 E.26028
G1 X20.757 Y48.257 E4.59937
G1 X27.745 Y48.257 E.26028
G1 X27.745 Y49.571 E.04896
G1 X27.789 Y49.813 E.00916
G1 X27.864 Y49.957 E.00605
G1 X28.112 Y50.179 E.01238
G1 X28.431 Y50.257 E.01222
G1 X51.569 Y50.257 E.86182
G1 X51.833 Y50.205 E.01
G1 X52.085 Y50.023 E.0116
G1 X52.218 Y49.794 E.00983
G1 X52.255 Y49.571 E.00841
G1 X52.255 Y48.257 E.04896
G1 X167.745 Y48.257 E4.30157
G1 X167.745 Y49.571 E.04896
G1 X167.782 Y49.794 E.00841
G1 X167.915 Y50.023 E.00983
G1 X168.122 Y50.184 E.00979
G1 X168.431 Y50.257 E.01181
G1 X191.569 Y50.257 E.86182
G1 X191.801 Y50.217 E.00876
G1 X192.06 Y50.05 E.01147
G1 X192.211 Y49.813 E.01046
G1 X192.233 Y49.694 E.00453
G1 X191.798 Y49.571 F24000
;TYPE:Outer wall
G1 F3000
G1 X191.798 Y47.8 E.06598
G1 X199.7 Y47.8 E.29433
G1 X199.7 Y172.2 E4.63342
G1 X191.798 Y172.2 E.29433
G1 X191.798 Y170.429 E.06598
G1 X191.733 Y170.269 E.00642
G1 X191.569 Y170.2 E.00661
G1 X168.431 Y170.2 E.86182
G1 X168.278 Y170.259 E.0061
G1 X168.202 Y170.429 E.00692
G1 X168.202 Y172.2 E.06598
G1 X51.798 Y172.2 E4.33561
G1 X51.798 Y170.429 E.06598
G1 X51.722 Y170.259 E.00692
G1 X51.569 Y170.2 E.0061
G1 X28.431 Y170.2 E.86182
G1 X28.267 Y170.269 E.00661
G1 X28.202 Y170.429 E.00642
G1 X28.202 Y172.2 E.06598
G1 X20.3 Y172.2 E.29433
G1 X20.3 Y47.8 E4.63342
G1 X28.202 Y47.8 E.29433
G1 X28.202 Y49.571 E.06598
G1 X28.267 Y49.731 E.00642
G1 X28.431 Y49.8 E.00661
G1 X51.569 Y49.8 E.86182
G1 X51.722 Y49.741 E.0061
G1 X51.798 Y49.571 E.00692
G1 X51.798 Y47.8 E.06598
G1 X168.202 Y47.8 E4.33561
G1 X168.202 Y49.571 E.06598
M73 P0 R83
G1 X168.278 Y49.741 E.00692
M73 P0 R83
G1 X168.431 Y49.8 E.0061
G1 X191.569 Y49.8 E.86182
G1 X191.733 Y49.731 E.00661
G1 X191.783 Y49.609 E.00493
G1 E-.5 F1800
;WIPE_START
G1 F12000
G1 X191.798 Y47.8
G1 X191.989 Y47.8
;WIPE_END
G1 Z.4 F24000
G1 X198.181 Y48.394
G1 Z.4
G1 Z.2
G1 E.5 F1800
;TYPE:Bottom surface
;WIDTH:0.500437
G1 F6300
G1 X198.9 Y49.113 E.03792
G1 X198.9 Y49.76 E.02412
G1 X197.74 Y48.6 E.06119
G1 X197.093 Y48.6 E.02412
G1 X198.9 Y50.407 E.0953
G1 X198.9 Y51.054 E.02412
G1 X196.446 Y48.6 E.12942
G1 X195.798 Y48.6 E.02412
G1 X198.9 Y51.702 E.16353
G1 X198.9 Y52.349 E.02412
G1 X195.151 Y48.6 E.19765
G1 X194.504 Y48.6 E.02412
G1 X198.9 Y52.996 E.23176
G1 X198.9 Y53.643 E.02412
G1 X193.857 Y48.6 E.26587
G1 X193.21 Y48.6 E.02412
G1 X198.9 Y54.29 E.29999
G1 X198.9 Y54.937 E.02412
G1 X192.598 Y48.634 E.33229
G1 X192.598 Y49.281 E.02412
G1 X198.9 Y55.584 E.33229
G1 X198.9 Y56.231 E.02412
G1 X192.544 Y49.875 E.33511
G1 X192.534 Y49.931 E.00214
G1 X192.421 Y50.149 E.00916
G1 X192.309 Y50.286 E.0066
G1 X198.9 Y56.878 E.34753
G1 X198.9 Y57.525 E.02412
G1 X191.915 Y50.54 E.36827
G1 X191.79 Y50.576 E.00488
G1 X191.576 Y50.6 E.00803
G1 X191.328 Y50.6 E.00922
G1 X198.9 Y58.172 E.39923
G1 X198.9 Y58.819 E.02412
G1 X190.681 Y50.6 E.43334
G1 X190.034 Y50.6 E.02412
G1 X198.9 Y59.466 E.46746
G1 X198.9 Y60.113 E.02412
G1 X189.387 Y50.6 E.50158
G1 X188.74 Y50.6 E.02412
G1 X198.9 Y60.76 E.5357
G1 X198.9 Y61.407 E.02412
G1 X188.093 Y50.6 E.56982
G1 X187.446 Y50.599 E.02412
G1 X198.9 Y62.054 E.60393
G1 X198.9 Y62.701 E.02412
G1 X186.799 Y50.599 E.63805
G1 X186.151 Y50.599 E.02412
G1 X198.9 Y63.348 E.67217
G1 X198.9 Y63.995 E.02412
G1 X185.504 Y50.599 E.70629
G1 X184.857 Y50.599 E.02412
G1 X198.9 Y64.642 E.7404
G1 X198.9 Y65.289 E.02412
G1 X184.21 Y50.599 E.77452
G1 X183.563 Y50.599 E.02412
G1 X198.9 Y65.936 E.80864
G1 X198.9 Y66.583 E.02412
G1 X182.916 Y50.599 E.84276
G1 X182.269 Y50.599 E.02412
G1 X198.9 Y67.23 E.87688
G1 X198.9 Y67.877 E.02412
G1 X181.622 Y50.599 E.91099
G1 X180.975 Y50.599 E.02412
G1 X198.9 Y68.524 E.94511
G1 X198.9 Y69.171 E.02412
G1 X180.328 Y50.599 E.97923
G1 X179.68 Y50.599 E.02412
G1 X198.9 Y69.818 E1.01335
G1 X198.9 Y70.465 E.02412
G1 X179.033 Y50.599 E1.04746
G1 X178.386 Y50.598 E.02412
G1 X198.9 Y71.112 E1.08158
G1 X198.9 Y71.759 E.02412
G1 X177.739 Y50.598 E1.1157
G1 X177.092 Y50.598 E.02412
G1 X198.9 Y72.406 E1.14982
G1 X198.9 Y73.053 E.02412
G1 X176.445 Y50.598 E1.18394
G1 X175.798 Y50.598 E.02412
G1 X198.9 Y73.7 E1.21805
G1 X198.9 Y74.347 E.02412
G1 X175.151 Y50.598 E1.25217
G1 X174.504 Y50.598 E.02412
G1 X198.9 Y74.994 E1.28629
G1 X198.9 Y75.642 E.02412
G1 X173.857 Y50.598 E1.32041
G1 X173.21 Y50.598 E.02412
G1 X198.9 Y76.289 E1.35452
G1 X198.9 Y76.936 E.02412
G1 X172.562 Y50.598 E1.38864
G1 X171.915 Y50.598 E.02412
G1 X198.9 Y77.583 E1.42276
M73 P1 R83
G1 X198.9 Y78.23 E.02412
M73 P1 R83
G1 X171.268 Y50.598 E1.45688
G1 X170.621 Y50.598 E.02412
G1 X198.9 Y78.877 E1.491
G1 X198.9 Y79.524 E.02412
G1 X169.974 Y50.598 E1.52511
G1 X169.327 Y50.598 E.02412
G1 X198.9 Y80.171 E1.55923
G1 X198.9 Y80.818 E.02412
G1 X168.474 Y50.392 E1.60419
G1 X167.608 Y48.879 F24000
G1 F6300
G1 X167.329 Y48.6 E.01469
G1 X166.682 Y48.6 E.02412
G1 X167.608 Y49.526 E.04881
G1 E-.5 F1800
;WIPE_START
G1 F12000
G1 X166.682 Y48.6
G1 X167.329 Y48.6
G1 X167.36 Y48.631
;WIPE_END
G1 Z.4 F24000
G1 X165.83 Y48.394 Z.4
G1 Z.2
G1 E.5 F1800
G1 F6300
G1 X198.9 Y81.465 E1.74363
G1 X198.9 Y82.112 E.02412
G1 X165.388 Y48.6 E1.7669
G1 X164.741 Y48.6 E.02412
G1 X198.9 Y82.759 E1.80101
G1 X198.9 Y83.406 E.02412
G1 X164.094 Y48.6 E1.83513
G1 X163.447 Y48.6 E.02412
G1 X198.9 Y84.053 E1.86924
G1 X198.9 Y84.7 E.02412
G1 X162.8 Y48.6 E1.90335
G1 X162.153 Y48.6 E.02412
G1 X198.9 Y85.347 E1.93747
G1 X198.9 Y85.994 E.02412
G1 X161.506 Y48.6 E1.97158
G1 X160.859 Y48.6 E.02412
G1 X198.9 Y86.641 E2.0057
G1 X198.9 Y87.288 E.02412
G1 X160.212 Y48.6 E2.03981
G1 X159.565 Y48.6 E.02412
G1 X198.9 Y87.935 E2.07392
G1 X198.9 Y88.582 E.02412
G1 X158.918 Y48.6 E2.10804
G1 X158.271 Y48.6 E.02412
G1 X198.9 Y89.229 E2.14215
G1 X198.9 Y89.876 E.02412
G1 X157.624 Y48.6 E2.17627
G1 X156.977 Y48.6 E.02412
G1 X198.9 Y90.523 E2.21038
G1 X198.9 Y91.17 E.02412
G1 X156.33 Y48.6 E2.2445
G1 X155.683 Y48.6 E.02412
G1 X198.9 Y91.817 E2.27861
G1 X198.9 Y92.464 E.02412
G1 X155.036 Y48.6 E2.31272
G1 X154.389 Y48.6 E.02412
G1 X198.9 Y93.111 E2.34684
G1 X198.9 Y93.758 E.02412
G1 X153.742 Y48.6 E2.38095
G1 X153.095 Y48.6 E.02412
G1 X198.9 Y94.405 E2.41507
G1 X198.9 Y95.052 E.02412
G1 X152.448 Y48.6 E2.44918
G1 X151.801 Y48.6 E.02412
G1 X198.9 Y95.699 E2.48329
G1 X198.9 Y96.346 E.02412
G1 X151.154 Y48.6 E2.51741
G1 X150.507 Y48.6 E.02412
G1 X198.9 Y96.993 E2.55152
G1 X198.9 Y97.64 E.02412
G1 X149.86 Y48.6 E2.58564
G1 X149.213 Y48.6 E.02412
G1 X198.9 Y98.287 E2.61975
G1 X198.9 Y98.934 E.02412
G1 X148.566 Y48.6 E2.65387
G1 X147.918 Y48.6 E.02412
G1 X198.9 Y99.582 E2.68798
G1 X198.9 Y100.229 E.02412
G1 X147.271 Y48.6 E2.72209
G1 X146.624 Y48.6 E.02412
G1 X198.9 Y100.876 E2.75621
G1 X198.9 Y101.523 E.02412
G1 X145.977 Y48.6 E2.79032
G1 X145.33 Y48.6 E.02412
G1 X198.9 Y102.17 E2.82444
G1 X198.9 Y102.817 E.02412
G1 X144.683 Y48.6 E2.85855
G1 X144.036 Y48.6 E.02412
G1 X198.9 Y103.464 E2.89266
G1 X198.9 Y104.111 E.02412
G1 X143.389 Y48.6 E2.92678
G1 X142.742 Y48.6 E.02412
G1 X198.9 Y104.758 E2.96089
G1 X198.9 Y105.405 E.02412
G1 X142.095 Y48.6 E2.99501
G1 X141.448 Y48.6 E.02412
G1 X198.9 Y106.052 E3.02912
G1 X198.9 Y106.699 E.02412
G1 X140.801 Y48.6 E3.06324
G1 X140.154 Y48.6 E.02412
G1 X198.9 Y107.346 E3.09735
G1 X198.9 Y107.993 E.02412
G1 X139.507 Y48.6 E3.13146
G1 X138.86 Y48.6 E.02412
G1 X198.9 Y108.64 E3.16558
G1 X198.9 Y109.287 E.02412
G1 X138.213 Y48.6 E3.19969
G1 X137.566 Y48.6 E.02412
G1 X198.9 Y109.934 E3.23381
G1 X198.9 Y110.581 E.02412
G1 X136.919 Y48.6 E3.26792
G1 X136.272 Y48.6 E.02412
G1 X198.9 Y111.228 E3.30203
G1 X198.9 Y111.875 E.02412
G1 X135.625 Y48.6 E3.33615
G1 X134.978 Y48.6 E.02412
G1 X198.9 Y112.522 E3.37026
G1 X198.9 Y113.169 E.02412
G1 X134.331 Y48.6 E3.40438
G1 X133.684 Y48.6 E.02412
G1 X198.9 Y113.816 E3.43849
G1 X198.9 Y114.463 E.02412
G1 X133.037 Y48.6 E3.4726
G1 X132.39 Y48.6 E.02412
G1 X198.9 Y115.11 E3.50672
G1 X198.9 Y115.757 E.02412
M73 P1 R82
G1 X131.743 Y48.6 E3.54083
M73 P1 R82
G1 X131.096 Y48.6 E.02412
G1 X198.9 Y116.404 E3.57495
G1 X198.9 Y117.051 E.02412
G1 X130.449 Y48.6 E3.60906
G1 X129.802 Y48.6 E.02412
G1 X198.9 Y117.698 E3.64318
G1 X198.9 Y118.345 E.02412
G1 X129.155 Y48.6 E3.67729
G1 X128.508 Y48.6 E.02412
M73 P2 R82
G1 X198.9 Y118.992 E3.7114
M73 P2 R82
G1 X198.9 Y119.639 E.02412
G1 X127.861 Y48.6 E3.74552
G1 X127.214 Y48.6 E.02412
G1 X198.9 Y120.286 E3.77963
G1 X198.9 Y120.933 E.02412
G1 X126.567 Y48.6 E3.81375
G1 X125.92 Y48.6 E.02412
G1 X198.9 Y121.58 E3.84786
G1 X198.9 Y122.227 E.02412
G1 X125.273 Y48.6 E3.88197
G1 X124.626 Y48.6 E.02412
G1 X198.9 Y122.874 E3.91609
G1 X198.9 Y123.521 E.02412
G1 X123.979 Y48.6 E3.9502
G1 X123.331 Y48.6 E.02412
G1 X198.9 Y124.169 E3.98432
G1 X198.9 Y124.816 E.02412
G1 X122.684 Y48.6 E4.01843
G1 X122.037 Y48.6 E.02412
G1 X198.9 Y125.463 E4.05255
G1 X198.9 Y126.11 E.02412
G1 X121.39 Y48.6 E4.08666
G1 X120.743 Y48.6 E.02412
G1 X198.9 Y126.757 E4.12077
G1 X198.9 Y127.404 E.02412
G1 X120.096 Y48.6 E4.15489
G1 X119.449 Y48.6 E.02412
G1 X198.9 Y128.051 E4.189
G1 X198.9 Y128.698 E.02412
G1 X118.802 Y48.6 E4.22312
G1 X118.155 Y48.6 E.02412
G1 X198.9 Y129.345 E4.25723
G1 X198.9 Y129.992 E.02412
G1 X117.508 Y48.6 E4.29134
G1 X116.861 Y48.6 E.02412
G1 X198.9 Y130.639 E4.32546
G1 X198.9 Y131.286 E.02412
G1 X116.214 Y48.6 E4.35957
G1 X115.567 Y48.6 E.02412
G1 X198.9 Y131.933 E4.39369
G1 X198.9 Y132.58 E.02412
G1 X114.92 Y48.6 E4.4278
G1 X114.273 Y48.6 E.02412
G1 X198.9 Y133.227 E4.46192
G1 X198.9 Y133.874 E.02412
G1 X113.626 Y48.6 E4.49603
G1 X112.979 Y48.6 E.02412
G1 X198.9 Y134.521 E4.53014
G1 X198.9 Y135.168 E.02412
G1 X112.332 Y48.6 E4.56426
G1 X111.685 Y48.6 E.02412
G1 X198.9 Y135.815 E4.59837
G1 X198.9 Y136.462 E.02412
G1 X111.038 Y48.6 E4.63249
G1 X110.391 Y48.6 E.02412
G1 X198.9 Y137.109 E4.6666
G1 X198.9 Y137.756 E.02412
G1 X109.744 Y48.6 E4.70071
G1 X109.097 Y48.6 E.02412
G1 X198.9 Y138.403 E4.73483
G1 X198.9 Y139.05 E.02412
G1 X108.45 Y48.6 E4.76894
G1 X107.803 Y48.6 E.02412
G1 X198.9 Y139.697 E4.80306
G1 X198.9 Y140.344 E.02412
G1 X107.156 Y48.6 E4.83717
G1 X106.509 Y48.6 E.02412
G1 X198.9 Y140.991 E4.87129
G1 X198.9 Y141.638 E.02412
G1 X105.862 Y48.6 E4.9054
G1 X105.215 Y48.6 E.02412
G1 X198.9 Y142.285 E4.93951
G1 X198.9 Y142.932 E.02412
G1 X104.568 Y48.6 E4.97363
G1 X103.921 Y48.6 E.02412
G1 X198.9 Y143.579 E5.00774
G1 X198.9 Y144.226 E.02412
G1 X103.274 Y48.6 E5.04186
G1 X102.627 Y48.6 E.02412
G1 X198.9 Y144.873 E5.07597
G1 X198.9 Y145.52 E.02412
M73 P3 R82
G1 X101.98 Y48.6 E5.11008
M73 P3 R82
G1 X101.333 Y48.6 E.02412
G1 X198.9 Y146.167 E5.1442
G1 X198.9 Y146.814 E.02412
M73 P3 R81
G1 X100.686 Y48.6 E5.17831
M73 P3 R81
G1 X100.039 Y48.6 E.02412
G1 X198.9 Y147.461 E5.21243
G1 X198.9 Y148.109 E.02412
G1 X99.391 Y48.6 E5.24654
G1 X98.744 Y48.6 E.02412
G1 X198.9 Y148.756 E5.28065
G1 X198.9 Y149.403 E.02412
G1 X98.097 Y48.6 E5.31477
G1 X97.45 Y48.6 E.02412
G1 X198.9 Y150.05 E5.34888
G1 X198.9 Y150.697 E.02412
G1 X96.803 Y48.6 E5.383
G1 X96.156 Y48.6 E.02412
G1 X198.9 Y151.344 E5.41711
G1 X198.9 Y151.991 E.02412
G1 X95.509 Y48.6 E5.45123
G1 X94.862 Y48.6 E.02412
G1 X198.9 Y152.638 E5.48534
G1 X198.9 Y153.285 E.02412
G1 X94.215 Y48.6 E5.51945
G1 X93.568 Y48.6 E.02412
G1 X198.9 Y153.932 E5.55357
G1 X198.9 Y154.579 E.02412
G1 X92.921 Y48.6 E5.58768
G1 X92.274 Y48.6 E.02412
G1 X198.9 Y155.226 E5.6218
G1 X198.9 Y155.873 E.02412
G1 X91.627 Y48.6 E5.65591
G1 X90.98 Y48.6 E.02412
G1 X198.9 Y156.52 E5.69002
G1 X198.9 Y157.167 E.02412
G1 X90.333 Y48.6 E5.72414
G1 X89.686 Y48.6 E.02412
G1 X198.9 Y157.814 E5.75825
G1 X198.9 Y158.461 E.02412
G1 X89.039 Y48.6 E5.79237
G1 X88.392 Y48.6 E.02412
G1 X198.9 Y159.108 E5.82648
G1 X198.9 Y159.755 E.02412
G1 X87.745 Y48.6 E5.8606
G1 X87.098 Y48.6 E.02412
G1 X198.9 Y160.402 E5.89471
G1 X198.9 Y161.049 E.02412
G1 X86.451 Y48.6 E5.92882
G1 X85.804 Y48.6 E.02412
G1 X198.9 Y161.696 E5.96294
G1 X198.9 Y162.343 E.02412
G1 X85.157 Y48.6 E5.99705
G1 X84.51 Y48.6 E.02412
G1 X198.9 Y162.99 E6.03117
G1 X198.9 Y163.637 E.02412
G1 X83.863 Y48.6 E6.06528
G1 X83.216 Y48.6 E.02412
G1 X198.9 Y164.284 E6.09939
G1 X198.9 Y164.931 E.02412
G1 X82.569 Y48.6 E6.13351
G1 X81.922 Y48.6 E.02412
G1 X198.9 Y165.578 E6.16762
G1 X198.9 Y166.225 E.02412
G1 X81.275 Y48.6 E6.20174
G1 X80.628 Y48.6 E.02412
M73 P4 R81
G1 X198.9 Y166.872 E6.23585
M73 P4 R81
G1 X198.9 Y167.519 E.02412
G1 X79.981 Y48.6 E6.26997
G1 X79.334 Y48.6 E.02412
G1 X198.9 Y168.166 E6.30408
G1 X198.9 Y168.813 E.02412
G1 X78.687 Y48.6 E6.33819
G1 X78.04 Y48.6 E.02412
G1 X198.9 Y169.46 E6.37231
G1 X198.9 Y170.107 E.02412
G1 X77.393 Y48.6 E6.40642
G1 X76.746 Y48.6 E.02412
G1 X198.9 Y170.754 E6.44054
G1 X198.9 Y171.4 E.02407
M73 P4 R80
G1 X76.099 Y48.6 E6.47461
M73 P4 R80
G1 X75.452 Y48.6 E.02412
G1 X198.252 Y171.4 E6.47458
G1 X197.605 Y171.4 E.02412
G1 X74.804 Y48.6 E6.47458
G1 X74.157 Y48.6 E.02412
G1 X196.958 Y171.4 E6.47458
G1 X196.311 Y171.4 E.02412
G1 X73.51 Y48.6 E6.47458
G1 X72.863 Y48.6 E.02412
G1 X195.664 Y171.4 E6.47458
G1 X195.017 Y171.4 E.02412
G1 X72.216 Y48.6 E6.47458
G1 X71.569 Y48.6 E.02412
G1 X194.37 Y171.4 E6.47458
G1 X193.723 Y171.4 E.02412
G1 X70.922 Y48.6 E6.47458
G1 X70.275 Y48.6 E.02412
G1 X191.076 Y169.4 E6.36913
G1 X190.429 Y169.4 E.02412
G1 X69.628 Y48.6 E6.36914
G1 X68.981 Y48.6 E.02412
G1 X189.782 Y169.4 E6.36914
G1 X189.135 Y169.4 E.02412
G1 X68.334 Y48.6 E6.36914
G1 X67.687 Y48.6 E.02412
G1 X188.488 Y169.4 E6.36915
G1 X187.841 Y169.401 E.02412
G1 X67.04 Y48.6 E6.36915
G1 X66.393 Y48.6 E.02412
